X:1
T:Title
%%score { ( 1 4 ) | ( 2 3 ) }
L:1/8
M:4/4
K:Bb
V:1 treble nm="Grand Piano"
V:4 treble 
V:2 bass 
V:3 bass 
V:1
 z4 z2[Q:1/4=100] [B,D]E | [B,DF]2 [B,FB]2 [B,EG]2 [B,EB]2 | [DF]3 G F2 [DF]2 | G2 F2 E2 D2 | %4
[M:3/4] C6[K:bass] |[M:1/4] [B,D] z |[M:4/4][K:treble] [B,DF]2 [B,FB]2 [B,FG]2 [B,EB]2 | %7
 F3 G [B,DF]2 [Fd]2 | [Fc]2 [A,C]2 [CFA]2 [B,=EG]2 |[M:3/4] [A,F]6 |[M:1/4] F2 | %11
[M:4/4] F2 [Ge]2 [Ge]2 [Fd]2 | [Ec]2 [B,DB]2 [FA]2 G2 | F2 A2 A2 G2 |[M:3/4] F6 |[M:1/4] F2 | %16
[M:4/4] ^F2 e2 [Ae]2 [Ad]2 | [Gc]2 [DB]2 [B,CA]2 [B,CG]2 | z2 B2 z4 |[M:3/4] [DFB]6 |] %20
V:2
 z4 z2 z C | B,,2 D,2 E,2 G,2 | B,4 z4 | [E,B,E]2 [D,B,]2 [E,G,C]2 [=E,G,B,]2 |[M:3/4] B,2 z2 z2 | %5
[M:1/4] D,C, |[M:4/4] B,,2 D,2 E,2 G,2 | B,4 z4 | [C,A,]2 C,2 C,2 C,2 |[M:3/4] F,6 |[M:1/4] F,2 | %11
[M:4/4] F,2 [F,B,]2 [F,G,]2 [F,A,]2 | A,2 z2 z4 | [F,A,E]2 [F,CE]2 [F,CE]2 [F,A,E]2 | %14
[M:3/4] E2 z2 z2 |[M:1/4][K:treble] [B,D]2 |[M:4/4] [A,CD]2 [A,C^F]2[K:bass] [^F,C]2 [F,D]2 | %17
 [G,D]2 G,2 =E,2 E,2 | F,2 z F F,2 F,2 |[M:3/4] B,,6 |] %20
V:3
 z4 z2 B,,2 | x8 | z2 z E [B,D]2 [B,,B,]2 | x8 |[M:3/4] F,4- F,E, |[M:1/4] x2 |[M:4/4] x8 | %7
 z2 D_D B,,2 _A,2 | x8 |[M:3/4] x6 |[M:1/4] x2 |[M:4/4] x8 | B,,4 [D,B,]2 [E,B,E]2 | x8 | %14
[M:3/4] B,6 |[M:1/4][K:treble] x2 |[M:4/4] x4[K:bass] x4 | x8 | z2 F,2 z4 |[M:3/4] x6 |] %20
V:4
 x8 | x8 | x8 | x8 |[M:3/4] z2[K:bass] A,G, A,2 |[M:1/4] F,-[F,CE] |[M:4/4][K:treble] x8 | %7
 E2 z2 z4 | x8 |[M:3/4] x6 |[M:1/4] x2 |[M:4/4] x8 | x8 | x8 |[M:3/4] z2 DC D2 |[M:1/4] x2 | %16
[M:4/4] x8 | x8 | [B,DF]2 [Ge]d [FAd]2 [EAc]2 |[M:3/4] x6 |] %20

